X:1
T:Táiliúir an mhagaig
L:1/8
M:6/8
I:linebreak $
K:G
V:1 treble 
V:1
 GB B/A/ Bd d/e/ | gdB A2 G | G4 z2 | GB B/A/ Bd e/f/ | gba/g/ g2 f/d/ | d4 z2 | GB B/A/ Bd e/f/ |$ %7
 gba/g/ g2 f/d/ | f4 e/d/ | cBB/A/ Bdd/e/ | fdB A2 G | G6 || %12
